X: 1
T: The House Of Hamill
R: reel
M: 4/4
L: 1/8
K: Edor
EBBA BFAF|E2 (3ABc dAFD|EBBA (3Bcd ef|gfec dAFD|
EBBA BFAF|E2 (3ABc dAFD|EBBA (3Bcd ef|gfec dAFA|
BE~E2 BEdE|BE~E2 ADFA|BE~E2 (3Bcd ef|gfec dAFA|
BE~E2 BEdE|BE~E2 ADFA|BAGF GBef|gfec dAFA|
B2^GB eBGB|BA^GB ADFA|B2^GB eBGB|=gfec dAFA|
B2^GB eBGB|BA^GB ADFA|BA=GF GBef|gfec dAFD|


Tune 2677	Setting 15917

